svgs/globeone.svg

<svg id="Layer_1" data-name="Layer 1" xmlns="http://www.w3.org/2000/svg" viewBox="0 0 24 24">
  <g>
    <path d="M19.01844,9.32571l2.16345-.83824a9.95559,9.95559,0,0,0-5.60577-5.64413L14.72291,5.0007A7.62845,7.62845,0,0,1,19.01844,9.32571Z"/>
    <path d="M11.92516,19.68076A7.60709,7.60709,0,0,1,9.08907,5.01567L8.22463,2.86346A9.92639,9.92639,0,1,0,21.15756,15.72435l-2.15783-.85321A7.6072,7.6072,0,0,1,11.92516,19.68076Z"/>
    <path d="M6.884,12.0748a5.04117,5.04117,0,1,0,5.04117-5.0407A5.04115,5.04115,0,0,0,6.884,12.0748Zm7.837,0a2.79587,2.79587,0,1,1-2.79587-2.7954A2.79587,2.79587,0,0,1,14.721,12.0748Z"/>
    <circle cx="11.92516" cy="3.30979" r="1.30976"/>
    <circle cx="20.69024" cy="12.15749" r="1.30976"/>
  </g>
</svg>

<svg xmlns="http://www.w3.org/2000/svg" data-name="Layer 1" viewBox="0 0 24 24"><path d="m19.018 9.326 2.164-.839a9.956 9.956 0 0 0-5.606-5.644l-.853 2.158a7.628 7.628 0 0 1 4.295 4.325M11.925 19.68A7.607 7.607 0 0 1 9.09 5.017l-.864-2.153a9.926 9.926 0 1 0 12.933 12.861L19 14.871a7.607 7.607 0 0 1-7.075 4.81"/><path d="M6.884 12.075a5.041 5.041 0 1 0 5.041-5.04 5.041 5.041 0 0 0-5.041 5.04m7.837 0a2.796 2.796 0 1 1-2.796-2.796 2.796 2.796 0 0 1 2.796 2.796"/><circle cx="11.925" cy="3.31" r="1.31"/><circle cx="20.69" cy="12.157" r="1.31"/></svg>
